img/arrow_right.svg

<svg width="44" height="44" viewBox="0 0 44 44" fill="none" xmlns="http://www.w3.org/2000/svg">
<path d="M44 22C44 9.84974 34.1503 0 22 0V0C9.84974 0 0 9.84974 0 22V22C0 34.1503 9.84974 44 22 44V44C34.1503 44 44 34.1503 44 22V22Z" fill="white" fill-opacity="0.4"/>
<path d="M19.313 16.9797C19.1354 17.1572 19.1193 17.435 19.2645 17.6307L19.313 17.6868L23.6258 21.9999L19.313 26.313C19.1354 26.4905 19.1193 26.7683 19.2645 26.9641L19.313 27.0201C19.4905 27.1976 19.7682 27.2138 19.964 27.0686L20.0201 27.0201L24.6867 22.3535C24.8642 22.176 24.8804 21.8982 24.7351 21.7024L24.6867 21.6464L20.0201 16.9797C19.8248 16.7844 19.5082 16.7844 19.313 16.9797Z" fill="white" stroke="white" stroke-width="0.9"/>
</svg>

<svg width="44" height="44" viewBox="0 0 44 44" fill="none" xmlns="http://www.w3.org/2000/svg"><path d="M44 22C44 9.85 34.15 0 22 0S0 9.85 0 22s9.85 22 22 22 22-9.85 22-22z" fill="#fff" fill-opacity=".4"/><path d="M19.313 16.98a.5.5 0 0 0-.048.65l.048.057L23.626 22l-4.313 4.313a.5.5 0 0 0-.048.651l.048.056a.5.5 0 0 0 .651.049l.056-.049 4.667-4.666a.5.5 0 0 0 .048-.652l-.048-.056-4.667-4.666a.5.5 0 0 0-.707 0z" fill="#fff" stroke="#fff" stroke-width=".9"/></svg>
